images/for-You/cursor.svg

<svg width="11" height="17" viewBox="0 0 11 17" fill="none" xmlns="http://www.w3.org/2000/svg">
<path d="M10.1161 9.42829L0.973214 0.285435C0.866071 0.169363 0.723214 0.115791 0.571429 0.115791C0.5 0.115791 0.419643 0.133649 0.357143 0.160435C0.142857 0.249721 0 0.455077 0 0.687221V14.1158C0 14.3479 0.142857 14.5533 0.357143 14.6426C0.419643 14.6694 0.5 14.6872 0.571429 14.6872C0.723214 14.6872 0.866071 14.6247 0.973214 14.5176L3.75893 11.7319L5.46429 15.7676C5.58929 16.0533 5.91964 16.1961 6.21429 16.0711L7.79464 15.4015C8.08036 15.2765 8.22322 14.9461 8.09822 14.6515L6.30357 10.4015H9.71429C9.94643 10.4015 10.1518 10.2586 10.2411 10.0444C10.3304 9.83901 10.2857 9.58901 10.1161 9.42829Z" fill="white"/>
</svg>

<svg xmlns="http://www.w3.org/2000/svg" width="11" height="17" fill="none"><path fill="#fff" d="M10.116 9.428.973.285a.533.533 0 0 0-.402-.17.575.575 0 0 0-.214.045A.573.573 0 0 0 0 .687v13.429c0 .232.143.437.357.527a.574.574 0 0 0 .214.044.568.568 0 0 0 .402-.17l2.786-2.785 1.705 4.036a.574.574 0 0 0 .75.303l1.58-.67a.574.574 0 0 0 .304-.75l-1.794-4.25h3.41a.573.573 0 0 0 .527-.357.55.55 0 0 0-.125-.616Z"/></svg>
